X:1
T:Title
%%score { ( 1 5 6 ) | ( 2 3 4 ) }
L:1/8
M:3/4
K:F
V:1 treble nm="Grand Piano"
V:5 treble 
V:6 treble 
V:2 bass 
V:3 bass 
V:4 bass 
V:1
 z2 z[Q:1/4=84] C =B,C | [CA]3 C [B,D]B | [CA]3 F GA | [Ec]3 B [DB]c |[M:3/8] [FA]3 | FFF | %6
[M:3/4] [DF]3 F [^CB]F | z2 z A [CA]A | [EA]3 G [D=B][Fd] |[M:9/16] [Ec]4- [Ec]/ | %10
[M:3/8] [DEB][CEA]>[B,EG] |[M:3/4] z D z d cd | c4 z2 | z2 G2 ._A2 | .A2 z2 z2 | c4 z2 | %16
 d4[K:bass][K:treble] z2 |[M:7/8] c z2 [CFA]2 z2 |[M:3/8] F3 |] %19
V:2
 z2 z A, _A,=A, | z C, z A, z D | z C, z A, B,C | z C, z D z E |[M:3/8] z C,F, | A,A,_E | %6
[M:3/4] z F, z D z ^C | F,,C, z C z F | z G, z E G,2 |[M:9/16] [C,G,]4- [C,G,]/ |[M:3/8] C,C,>C, | %11
[M:3/4] [F,A,][F,B,] [F,A,]2 [F,A,F]2 | [G,B,E][F,B,] [E,B,][C,E,] [C,G,C][C,A,C] | %13
 C,C, C,C, [C,=B,][C,B,] | [F,C][F,B,] [F,A,][F,A,] [F,A,C][F,CF] | %15
 [F,A,F][G,B,][K:treble] [A,C][A,CF] [A,CF][A,CF] | [B,F]3[K:bass] [B,,B,] [=B,,G,][B,,G,] | %17
[M:7/8] A,B,.A, C, C,2- C,/F,/ |[M:3/8] z B,A, |] %19
V:3
 x6 | z2 F,2 z2 | z2 F,2 z2 | z2 C,2 C,2 |[M:3/8] F,,3 | x3 |[M:3/4] z2 B,2 F,2 | z2 F,2 C,2 | %8
 z2 G,2 z2 |[M:9/16] x9/2 |[M:3/8] x3 |[M:3/4] x6 | x6 | x6 | x6 | x2[K:treble] x4 | %16
 x3[K:bass] x3 |[M:7/8] C,3 z z z2 |[M:3/8] F,3 |] %19
V:4
 x6 | F,,4 B,,2 | F,,4 z2 | C,,6 |[M:3/8] x3 | x3 |[M:3/4] B,,6 | x6 | G,,6 |[M:9/16] x9/2 | %10
[M:3/8] x3 |[M:3/4] x6 | x6 | x6 | x6 | x2[K:treble] x4 | x3[K:bass] x3 |[M:7/8] x7 |[M:3/8] x3 |] %19
V:5
 x6 | x6 | x6 | x6 |[M:3/8] z z A, | x3 |[M:3/4] x6 | [CA]4 z2 | x6 |[M:9/16] x9/2 |[M:3/8] x3 | %11
[M:3/4] F4 z2 | z D CC EF | [B,EG][A,_E^F] [B,=E][B,E] d-[_Ad] | c-[Gc-] [Fc]C FA | z E Fc _ee | %16
 z[K:bass] F, B,,[K:treble][Fd] [F^c][Fc] |[M:7/8] F-[F-d][Fc] z [B,EG]2- [B,EG]/[A,CF]/ | %18
[M:3/8] [A,C]DC |] %19
V:6
 x6 | x6 | x6 | x6 |[M:3/8] x3 | x3 |[M:3/4] x6 | z2 A,2 z2 | x6 |[M:9/16] x9/2 |[M:3/8] x3 | %11
[M:3/4] z2 C2 z2 | x6 | x6 | x6 | x6 | x[K:bass] x2[K:treble] x3 |[M:7/8] x7 |[M:3/8] x3 |] %19

